X: 28
T:Mrs Capt Charles Gordon, Huntly
B:William Marshall Volume 2nd Of A Collection Of Scottish Melodies (1845)
C:William Marshall
L:1/8
M:4/4
N:Slow when not danced
O:Scotland
R:Strathspey
Z:Clark Bernst
%%Page:30 - 1
F:http://richardrobinson.tunebook.org.uk/tune/3871
%%TBL:{"version":1,"type":"tune","id":"3871"}
K:A
e/f/4g/4 | \
a2 a3/2e/ f/b/a/g/ a3/2e/ | f/b3/2b3/2a/ g/e3/2 ef/g/ | \
a2 ae f/e/d/c/ d/c/B/A/   | F/B/G/B/ A/f/e/d/ c/A3/2 Ae/f/4g/4 |
a2 a3/2e/ f/b/a/g/ a3/2e/ | f/b3/2b3/2a/ g/e3/2 ef/g/ | \
a2 ae f/e/d/c/ d/c/B/A/   | F/B/G/B/ A/f/e/d/ c/A3/2 Af/g/ ||
aAcA eAcA | B/d/c/e/ d/c/B/A/ B/F3/2 Ff/g/ | \
aAcA eAcA | f/g/a/f/ g/b/a/g/ aA Af/g/ |
aecA ecAC | D3/2F/ E/C3/2 B,B Bb/g/ | \
f3/2b/ a/g/f/e/ f/e/f/g/ a3/2A/ | F/B/G/B/ A/f/e/d/ c/A3/2 Ae/f/4g/4 |]

